X:90
T: Raheen #3
M: 4/4
L: 1/8
S: Patrick Street
R: reel
D: "Live from Patrick Street"
Z: "Barney"
K: D
FE|D2 DF EDB,A,|D2 DE FA A2|Beef e2 de|f2 ed BAFE |
(3DED DF EDB,A,|D2 DE FA A2|Beef e2 dB|1 AFEF D2 :|2\
AFEF D2 ||
EF|ABde f2 fa|afdf edBA|ABde fedf|af df e2 dB|
ABde f2 fa|afdf edBA|dcdB AddB|1 AFEF D2 :|2\
AFEF D4 ||
